outputs/icons/communication/end_call_sharp.svg

<svg width="1200" height="1200" viewBox="0 0 1200 1200" fill="none" xmlns="http://www.w3.org/2000/svg"><g clip-path="url(#clip0_858_2002)"><path d="M184 853.625L380 698.125V529.625C522.5 483.125 677 483.125 820 529.625V698.625L1015.5 853.625L1200 669.625C879.5 310.125 320.5 310.125 0 669.625L184 853.625Z" fill="black"/></g><defs><clipPath id="clip0_858_2002"><path width="24" fill="white" d="M0 0H1200V1200H0V0z"/></clipPath></defs></svg>

<svg xmlns="http://www.w3.org/2000/svg" width="1200" height="1200" fill="none"><g clip-path="url(#a)"><path fill="#000" d="m184 853.625 196-155.5v-168.5c142.5-46.5 297-46.5 440 0v169l195.5 155 184.5-184c-320.5-359.5-879.5-359.5-1200 0z"/></g><defs><clipPath id="a"><path fill="#fff" d="M0 0h1200v1200H0z"/></clipPath></defs></svg>
